Breeze Round Light/actions/16/news-unsubscribe.svg

<svg xmlns="http://www.w3.org/2000/svg" viewBox="0 0 16 16">
  <defs id="defs3051">
    <style type="text/css" id="current-color-scheme">.ColorScheme-Text {color:#fcfcfc;}.ColorScheme-NegativeText {color:#da4453;}</style>
  </defs>
  <path
     style="fill:currentColor;fill-opacity:1;stroke:none" 
     class="ColorScheme-NegativeText"
    d="m 4,2 c 0,0 -2,0 -2,2 0,2 0,6 0,8 0,2 2,2 2,2 h 8 c 0,0 2,0 2,-2 0,-2 0,-6 0,-8 C 14,2 12,2 12,2 Z M 3,4 C 3,3 4,3 4,3 h 8 c 0,0 1,0 1,1 0,1 0,7 0,8 0,1 -1,1 -1,1 H 4 C 4,13 3,13 3,12 3,11 3,5 3,4 Z M 4,4 V 7 H 7 V 4 Z m 4,0 v 1 h 4 V 4 Z m 0,2 v 1 h 4 V 6 Z M 4,8 v 4 h 8 V 8 Z" />
</svg>

<svg xmlns="http://www.w3.org/2000/svg" viewBox="0 0 16 16">
  <defs id="defs3051">
    <style type="text/css" id="current-color-scheme">
      .ColorScheme-Text {
        color:#232629;
      }
      .ColorScheme-NegativeText {
        color:#da4453;
      }
      </style>
  </defs>
  <path
     style="fill:currentColor;fill-opacity:1;stroke:none" 
     class="ColorScheme-NegativeText"
    d="M 2 2 L 2 14 L 14 14 L 14 2 L 2 2 z M 3 3 L 13 3 L 13 13 L 3 13 L 3 3 z M 4 4 L 4 7 L 7 7 L 7 4 L 4 4 z M 8 4 L 8 5 L 12 5 L 12 4 L 8 4 z M 8 6 L 8 7 L 12 7 L 12 6 L 8 6 z M 4 8 L 4 12 L 12 12 L 12 8 L 4 8 z " />
</svg>
